atarist/_inc/system.svg

<svg xmlns="http://www.w3.org/2000/svg"><g fill="#fff"><path d="m172.222 5.115c3.782-4.84 11.607-5.664 16.247-1.608 1.897 1.598 3.226 3.804 3.904 6.177 8.589 29.553 17.216 59.091 25.794 88.646-5.07.003-10.141-.006-15.209.003-2.39-8.143-4.724-16.309-7.084-24.462-9.8-.029-19.599-.009-29.397-.012-2.401 8.151-4.768 16.31-7.126 24.48-5.041-.021-10.08-.009-15.123-.012 8.159-28.19 16.328-56.38 24.527-84.562.974-2.947 1.338-6.243 3.467-8.65m8.947 18.108c-3.594 12.243-7.115 24.511-10.687 36.76 7.122.032 14.243.012 21.363.012-3.564-12.256-7.112-24.514-10.676-36.772z"/><path d="m278.992 5.751c2.64-3.831 7.747-5.693 12.241-4.509 4.117.949 7.266 4.496 8.354 8.489 8.579 29.532 17.188 59.05 25.766 88.576-5.074.045-10.148 0-15.223.022-2.358-8.153-4.694-16.321-7.071-24.471-9.784.003-19.567-.021-29.351.007-2.338 8.163-4.748 16.303-7.088 24.461-5.037.003-10.072 0-15.107.003 8.153-28.342 16.405-56.662 24.625-84.987.863-2.56 1.194-5.38 2.854-7.591m-1.234 54.244c7.093.01 14.182.003 21.274.003-3.526-12.281-7.111-24.546-10.631-36.83-3.542 12.277-7.12 24.545-10.643 36.827z"/><path d="m206.818 1.095h55.001v14.835c-6.75.006-13.499-.007-20.247.006 0 27.465.004 54.929-.003 82.395-4.832 0-9.672 0-14.506 0 0-27.465-.004-54.928.005-82.395-6.751-.013-13.499 0-20.249-.006-.001-4.945-.005-9.889-.001-14.835z"/><path d="m341.474 1.698c1.392-.482 2.879-.646 4.35-.611 5.781.022 11.561.003 17.344.008 9.735.177 19.028 6.223 23.242 14.985 2.917 5.69 3.219 12.309 2.482 18.552-.504 6.536-3.248 13.07-8.27 17.399-2.654 2.369-5.96 3.802-8.799 5.904-1.56 1.191-1.634 3.494-.83 5.144 7.673 11.847 15.651 23.503 23.482 35.25-5.728.012-11.457-.015-17.185.012-7.502-11.266-14.924-22.589-22.395-33.867-2.196-3.208-2.79-7.462-1.477-11.129 1.025-2.809 3.484-4.868 6.219-5.926 5.223-1.992 10.369-5.125 13.264-10.052 2.198-3.707 2.088-8.274 1.099-12.329-1.162-5.262-6.289-9.406-11.706-9.222-3.748.025-7.492-.022-11.233.017-1.693-.039-3.287 1.432-3.266 3.153-.019 26.447.01 52.901-.006 79.353-4.872-.009-9.74 0-14.613-.009-.01-28.471.008-56.953-.01-85.425.024-4.994 3.575-9.691 8.308-11.207z"/><path d="m402.134 1.095h15.376c-.006 32.416.004 64.824-.01 97.235-5.12-.012-10.242 0-15.367-.003.001-32.412.001-64.819.001-97.232z"/><path d="m43.353.916c2.461-.008 4.922 0 7.388-.004.008 5.789 0 11.58.003 17.367.023 4.833-.112 9.663-.312 14.493-.33 6.97-.768 13.957-1.92 20.845-.794 4.749-2.44 9.335-4.476 13.686-3.325 7.008-8.552 12.939-14.427 17.926-5.254 4.627-11.527 7.996-18.125 10.269-3.733 1.292-7.575 2.278-11.484 2.832.003-4.856.003-9.714 0-14.568 4.709-.709 9.235-2.38 13.437-4.59 4.986-2.637 9.476-6.182 13.256-10.365 3.903-4.315 7.013-9.315 9.373-14.62 2.78-6.099 4.268-12.694 5.28-19.292 1.268-8.39 1.796-16.882 1.992-25.356.031-2.872.007-5.747.015-8.623z"/><path d="m53.71.926c4.533-.029 9.065-.003 13.6-.01.001 32.469.001 64.943 0 97.411-4.523.012-9.046-.02-13.568.022-.055-10.351-.007-20.713-.023-31.063-.006-22.118.008-44.237-.009-66.36z"/><path d="m70.335.916c2.45-.004 4.897-.008 7.344 0-.081 9.9.258 19.822 1.437 29.655.966 7.641 2.329 15.34 5.372 22.456 2.884 6.885 7.042 13.285 12.461 18.448 5.177 4.935 11.445 8.729 18.258 10.91 1.901.605 3.844 1.081 5.822 1.375-.001 4.854-.004 9.706 0 14.56-3.883-.529-7.691-1.531-11.397-2.79-4.412-1.534-8.681-3.523-12.602-6.077-2.862-1.834-5.464-4.039-7.963-6.336-4.121-3.803-7.807-8.118-10.579-13.012-2.165-3.808-3.746-7.922-4.986-12.115-1.135-4.216-1.617-8.58-2.058-12.913-.852-9.373-1.171-18.789-1.111-28.194.002-5.323 0-10.644.002-15.967z"/><path d="m53.71.926c.016 22.122.004 44.242.009 66.358.015 10.35-.034 20.708.023 31.064 4.522-.041 9.046-.011 13.568-.022.001-32.468.001-64.941 0-97.414-4.533.011-9.066-.014-13.6.014"/><path d="m70.335.916c-.002 5.321 0 10.644 0 15.965-.061 9.402.259 18.82 1.111 28.194.441 4.333.923 8.697 2.058 12.912 1.238 4.194 2.821 8.309 4.986 12.116 2.771 4.894 6.458 9.209 10.579 13.011 2.501 2.301 5.102 4.503 7.963 6.337 3.921 2.553 8.19 4.54 12.602 6.077 3.705 1.258 7.514 2.258 11.397 2.789-.004-4.853-.001-9.706 0-14.559-1.976-.29-3.922-.771-5.822-1.375-6.813-2.181-13.082-5.975-18.258-10.91-5.419-5.156-9.577-11.561-12.461-18.448-3.043-7.116-4.406-14.815-5.372-22.456-1.18-9.833-1.518-19.755-1.437-29.655-2.45-.006-4.898-.002-7.346.002"/><path d="m458.164 62.704 1.771 1.391c6.194 4.803 13.653 8.723 21.618 8.723 3.413 0 8.848-1.39 8.848-5.691 0-4.298-4.552-4.675-7.711-5.308l-6.954-1.263c-13.526-2.402-24.904-10.368-24.904-25.287-.001-22.627 20.607-35.269 41.34-35.269 10.871 0 20.858 2.655 30.213 8.344l-9.355 24.399c-5.941-4.044-12.64-7.205-20.099-7.205-3.035 0-7.46 1.135-7.46 5.054 0 3.542 4.3 4.046 6.952 4.677l7.839 1.773c14.663 3.285 25.283 11.124 25.283 27.306 0 22.754-20.732 34.007-41.338 34.007-12.012 0-25.917-3.288-36.663-8.723z"/><path d="m527.184 1.517h72.816v26.741l-19.088.054v68.526h-34.638v-68.527l-19.09-.053z"/></g></svg>

<?xml version="1.0" encoding="utf-8"?>
<svg version="1.1" xmlns="http://www.w3.org/2000/svg">
  <g>
    <path d="M 172.222 5.115 C 176.004 0.275 183.829 -0.549 188.469 3.507 C 190.366 5.105 191.695 7.311 192.373 9.684 C 200.962 39.237 209.589 68.775 218.167 98.33 C 213.097 98.333 208.026 98.324 202.958 98.333 C 200.568 90.19 198.234 82.024 195.874 73.871 C 186.074 73.842 176.275 73.862 166.477 73.859 C 164.076 82.01 161.709 90.169 159.351 98.339 C 154.31 98.318 149.271 98.33 144.228 98.327 C 152.387 70.137 160.556 41.947 168.755 13.765 C 169.729 10.818 170.093 7.522 172.222 5.115 M 181.169 23.223 C 177.575 35.466 174.054 47.734 170.482 59.983 C 177.604 60.015 184.725 59.995 191.845 59.995 C 188.281 47.739 184.733 35.481 181.169 23.223 Z" id="path7" style="fill-opacity: 1; fill: rgb(255, 255, 255);"/>
    <path d="M 278.992 5.751 C 281.632 1.92 286.739 0.058 291.233 1.242 C 295.35 2.191 298.499 5.738 299.587 9.731 C 308.166 39.263 316.775 68.781 325.353 98.307 C 320.279 98.352 315.205 98.307 310.13 98.329 C 307.772 90.176 305.436 82.008 303.059 73.858 C 293.275 73.861 283.492 73.837 273.708 73.865 C 271.37 82.028 268.96 90.168 266.62 98.326 C 261.583 98.329 256.548 98.326 251.513 98.329 C 259.666 69.987 267.918 41.667 276.138 13.342 C 277.001 10.782 277.332 7.962 278.992 5.751 M 277.758 59.995 C 284.851 60.005 291.94 59.998 299.032 59.998 C 295.506 47.717 291.921 35.452 288.401 23.168 C 284.859 35.445 281.281 47.713 277.758 59.995 Z" id="path9" style="fill-opacity: 1; fill: rgb(255, 255, 255);"/>
    <path d="M 206.818 1.095 C 225.153 1.095 243.489 1.095 261.819 1.095 C 261.819 6.042 261.819 10.984 261.819 15.93 C 255.069 15.936 248.32 15.923 241.572 15.936 C 241.572 43.401 241.576 70.865 241.569 98.331 C 236.737 98.331 231.897 98.331 227.063 98.331 C 227.063 70.866 227.059 43.403 227.068 15.936 C 220.317 15.923 213.569 15.936 206.819 15.93 C 206.818 10.985 206.814 6.041 206.818 1.095 Z" id="path11" style="fill-opacity: 1; fill: rgb(255, 255, 255);"/>
    <path d="M 341.474 1.698 C 342.866 1.216 344.353 1.052 345.824 1.087 C 351.605 1.109 357.385 1.09 363.168 1.095 C 372.903 1.272 382.196 7.318 386.41 16.08 C 389.327 21.77 389.629 28.389 388.892 34.632 C 388.388 41.168 385.644 47.702 380.622 52.031 C 377.968 54.4 374.662 55.833 371.823 57.935 C 370.263 59.126 370.189 61.429 370.993 63.079 C 378.666 74.926 386.644 86.582 394.475 98.329 C 388.747 98.341 383.018 98.314 377.29 98.341 C 369.788 87.075 362.366 75.752 354.895 64.474 C 352.699 61.266 352.105 57.012 353.418 53.345 C 354.443 50.536 356.902 48.477 359.637 47.419 C 364.86 45.427 370.006 42.294 372.901 37.367 C 375.099 33.66 374.989 29.093 374 25.038 C 372.838 19.776 367.711 15.632 362.294 15.816 C 358.546 15.841 354.802 15.794 351.061 15.833 C 349.368 15.794 347.774 17.265 347.795 18.986 C 347.776 45.433 347.805 71.887 347.789 98.339 C 342.917 98.33 338.049 98.339 333.176 98.33 C 333.166 69.859 333.184 41.377 333.166 12.905 C 333.19 7.911 336.741 3.214 341.474 1.698 Z" id="path13" style="fill-opacity: 1; fill: rgb(255, 255, 255);"/>
    <path d="M 402.134 1.095 C 407.259 1.095 412.381 1.095 417.51 1.095 C 417.504 33.511 417.514 65.919 417.5 98.33 C 412.38 98.318 407.258 98.33 402.133 98.327 C 402.134 65.915 402.134 33.508 402.134 1.095 Z" id="path15" style="fill-opacity: 1; fill: rgb(255, 255, 255);"/>
    <path d="M 43.353 0.916 C 45.814 0.908 48.275 0.916 50.741 0.912 C 50.749 6.701 50.741 12.492 50.744 18.279 C 50.767 23.112 50.632 27.942 50.432 32.772 C 50.102 39.742 49.664 46.729 48.512 53.617 C 47.718 58.366 46.072 62.952 44.036 67.303 C 40.711 74.311 35.484 80.242 29.609 85.229 C 24.355 89.856 18.082 93.225 11.484 95.498 C 7.751 96.79 3.909 97.776 0 98.33 C 0.003 93.474 0.003 88.616 0 83.762 C 4.709 83.053 9.235 81.382 13.437 79.172 C 18.423 76.535 22.913 72.99 26.693 68.807 C 30.596 64.492 33.706 59.492 36.066 54.187 C 38.846 48.088 40.334 41.493 41.346 34.895 C 42.614 26.505 43.142 18.013 43.338 9.539 C 43.369 6.667 43.345 3.792 43.353 0.916 Z" id="path19" style="fill-opacity: 1; fill: rgb(255, 255, 255);"/>
    <path d="M 53.71 0.926 C 58.243 0.897 62.775 0.923 67.31 0.916 C 67.311 33.385 67.311 65.859 67.31 98.327 C 62.787 98.339 58.264 98.307 53.742 98.349 C 53.687 87.998 53.735 77.636 53.719 67.286 C 53.713 45.168 53.727 23.049 53.71 0.926 Z" id="path21" style="fill-opacity: 1; fill: rgb(255, 255, 255);"/>
    <path d="M 70.335 0.916 C 72.785 0.912 75.232 0.908 77.679 0.916 C 77.598 10.816 77.937 20.738 79.116 30.571 C 80.082 38.212 81.445 45.911 84.488 53.027 C 87.372 59.912 91.53 66.312 96.949 71.475 C 102.126 76.41 108.394 80.204 115.207 82.385 C 117.108 82.99 119.051 83.466 121.029 83.76 C 121.028 88.614 121.025 93.466 121.029 98.32 C 117.146 97.791 113.338 96.789 109.632 95.53 C 105.22 93.996 100.951 92.007 97.03 89.453 C 94.168 87.619 91.566 85.414 89.067 83.117 C 84.946 79.314 81.26 74.999 78.488 70.105 C 76.323 66.297 74.742 62.183 73.502 57.99 C 72.367 53.774 71.885 49.41 71.444 45.077 C 70.592 35.704 70.273 26.288 70.333 16.883 C 70.335 11.56 70.333 6.239 70.335 0.916 Z" id="path23" style="fill-opacity: 1; fill: rgb(255, 255, 255);"/>
    <path d="M 53.71 0.926 C 53.726 23.048 53.714 45.168 53.719 67.284 C 53.734 77.634 53.685 87.992 53.742 98.348 C 58.264 98.307 62.788 98.337 67.31 98.326 C 67.311 65.858 67.311 33.385 67.31 0.912 C 62.777 0.923 58.244 0.898 53.71 0.926" id="path25" style="fill-opacity: 1; fill: rgb(255, 255, 255);"/>
    <path d="M 70.335 0.916 C 70.333 6.237 70.335 11.56 70.335 16.881 C 70.274 26.283 70.594 35.701 71.446 45.075 C 71.887 49.408 72.369 53.772 73.504 57.987 C 74.742 62.181 76.325 66.296 78.49 70.103 C 81.261 74.997 84.948 79.312 89.069 83.114 C 91.57 85.415 94.171 87.617 97.032 89.451 C 100.953 92.004 105.222 93.991 109.634 95.528 C 113.339 96.786 117.148 97.786 121.031 98.317 C 121.027 93.464 121.03 88.611 121.031 83.758 C 119.055 83.468 117.109 82.987 115.209 82.383 C 108.396 80.202 102.127 76.408 96.951 71.473 C 91.532 66.317 87.374 59.912 84.49 53.025 C 81.447 45.909 80.084 38.21 79.118 30.569 C 77.938 20.736 77.6 10.814 77.681 0.914 C 75.231 0.908 72.783 0.912 70.335 0.916" id="path27" style="fill-opacity: 1; fill: rgb(255, 255, 255);"/>
    <path d="M 458.164 62.704 L 459.935 64.095 C 466.129 68.898 473.588 72.818 481.553 72.818 C 484.966 72.818 490.401 71.428 490.401 67.127 C 490.401 62.829 485.849 62.452 482.69 61.819 L 475.736 60.556 C 462.21 58.154 450.832 50.188 450.832 35.269 C 450.831 12.642 471.439 0 492.172 0 C 503.043 0 513.03 2.655 522.385 8.344 L 513.03 32.743 C 507.089 28.699 500.39 25.538 492.931 25.538 C 489.896 25.538 485.471 26.673 485.471 30.592 C 485.471 34.134 489.771 34.638 492.423 35.269 L 500.262 37.042 C 514.925 40.327 525.545 48.166 525.545 64.348 C 525.545 87.102 504.813 98.355 484.207 98.355 C 472.195 98.355 458.29 95.067 447.544 89.632 L 458.164 62.704 Z" id="path31" style="fill-opacity: 1; fill: rgb(255, 255, 255);"/>
    <path d="M 527.184 1.517 L 600 1.517 L 600 28.258 L 580.912 28.312 L 580.912 96.838 L 546.274 96.838 L 546.274 28.311 L 527.184 28.258 L 527.184 1.517 Z" id="path33" style="fill-opacity: 1; fill: rgb(255, 255, 255);"/>
  </g>
</svg>
